X:313
T:Alister McAlister
T:Alasdair Mac Alasdair
T:Mrs Wemyss of Cuttle Hill
B:Kerr's Merry Melodies Book 2
N:Transposed from Am for comparison
Z:Nigel Gatherer
R:Strathspey
M:4/4
L:1/8
K:Bm
f/>e/|d<BB>A F<BB>c|d<BB>c f2 f>e|d<BB>A F<BB>d|c<AA>c e2- e:|
c|d>ef>g a>ba>f|d>ef>g a2 a>f|d>ef>g a>ba>f|c<AA>c e2 e>c|
d>ef>g a>ba>f|d>ef>g a2 a>b|=c'>ab>g a>fg>e|c<AA>c e2- e|]
<end>
<start>
